X:9
P:Heike Nagorny - Strathspey
C:Anselm Lingnau
M:C
K:D
A2|"D"d<D AG "Bm"F3 D|"Em"G>FED "A"C<E A2|\
 "G"B,3 B, "D/F#"A,>DFA|"Em"G<A GF "A7"E2 A2|
 "D"d<D AG F3 D|"G"B,>DGB "D/F#"ADFA|\
 "G"d2 c>B "D"(3Adf (3afd|"Em"e<B "A7"cA "D"d2||
A2|"D"d<d fd "A"c3 A|"G"B>AGB "D/F#"AdFD|\
 "Em"G<G B>G "D"(3FAd (3def|"Em"e>f ed "A7"c2 A2|
 "D"d<d fd "F#m"c3 A|"G"Bd (3FGA|\
 "G"d2 c>B "D/F#"(3Adf (3afd|"Em"e>B "A7"c<A "D"d2|]
